!!!SOCIAL_FUNCTION:	songs of the turkey dance
!!!PDT:	1922
!!!OTL: No_30_Turkey_Dance_Song_(a).krn
!!!REG: Southwest
!!!LANG: Non-Tone
!!!LING_GROUP: Uto-Aztecan
**kern	**kern
*staff2	*staff1
=1-	=1-
*clefF4	*clefF4
*k[f#c#g#d#a#]	*k[f#c#g#d#a#]
*M2/4	*M2/4
8GG#/L	8.f#\L
8GG#/J	.
.	16g#\Jk
8GG#/L	8g#\L
8GG#/J	8f#\J
=2	=2
8GG#/L	8d#\L
8GG#/J	8f#\J
8GG#/L	8.d#\L
8GG#/J	.
.	16d#\Jk
=3||	=3||
*M7/8	*M7/8
8GG#/L	2d#\
8GG#/	.
8GG#/	.
8GG#/	.
8GG#/	8B\L
8GG#/	8G#\
8GG#/J	8G#\J
=4||	=4||
*M2/4	*M2/4
8GG#/L	8.B\L
8GG#/J	.
.	16c#\Jk
8GG#/L	8c#\L
8GG#/J	8B\J
=5	=5
8GG#/L	16G#\LL
.	16G#\J
8GG#/J	8B\J
8GG#/L	8.G#\L
8GG#/J	.
.	16G#\Jk
=6||	=6||
*M7/8	*M7/8
8GG#/L	2G#\
8GG#/	.
8GG#/	.
8GG#/	.
8GG#/	8F#\L
8GG#/	16D#\L
.	16D#\J
8GG#/J	8D#\J
=7||	=7||
*M3/8	*M3/8
8GG#/L	8.G#\L
8GG#/	.
.	16B\L
8GG#/J	16B\
.	16G#\JJ
=8||	=8||
*M5/8	*M5/8
8GG#/L	8F#\L
8GG#/	16D#\L
.	16F#\J
8GG#/	8F#\
8GG#/	8.D#\
8GG#/J	.
.	16D#\Jk
=9||	=9||
*M3/4	*M3/4
8GG#/L	2D#\
8GG#/J	.
8GG#/L	.
8GG#/J	.
8GG#/L	4D#\
8GG#/J	.
=10||	=10||
*M2/4	*M2/4
8GG#^/L	8.B\L
8GG#/J	.
.	16G#\Jk
8GG#/	4G#\
8r	.
=11	=11
8GG#/	8.B\L
8r	.
.	16c#\Jk
8GG#/	8c#\L
8r	8B\J
=12	=12
2r	16G#\LL
.	16G#\J
.	8B\J
.	8.G#\L
.	16G#\Jk
=13||	=13||
*M3/8	*M3/8
4.r	4.G#\
=14	=14
4.r	16.F#\LL
.	32D#\JJk
.	4D#\
=15	=15
8r	8.G#\L
8GG#/L	.
.	16B\L
8GG#^/J	16B\
.	16G#\JJ
=16||	=16||
*M5/8	*M5/8
8GG#/L	8F#\L
8GG#^/	16D#\L
.	16D#\J
8GG#/	8F#\
8GG#^/	8.D#\
8GG#/J	.
.	16D#\Jk
=17||	=17||
*M2/4	*M2/4
8GG#^/L	2D#\
8GG#/J	.
8GG#^/L	.
8GG#/J	.
=18	=18
8GG#^/L	4D#\
8GG#/J	.
8GG#^/L	4r
8GG#/J	.
=19||	=19||
*M3/4	*M3/4
8GG#/L	12f#\L
.	12f#\
8GG#/J	.
.	12f#\J
8GG#/L	8d#\L
8GG#/J	8f#\J
8GG#/L	8.d#\L
8GG#/J	.
.	16d#\Jk
=20	=20
8GG#/L	4.d#\
8GG#/J	.
8GG#/L	.
8GG#/J	8B\
8GG#/L	8G#\L
8GG#/J	8G#\J
=21	=21
8GG#/L	12f#\L
.	12f#\
8GG#/J	.
.	12f#\J
8GG#/L	8d#\L
8GG#/J	8f#\J
8GG#/L	8.d#\L
8GG#/J	.
.	16d#\Jk
=22	=22
8GG#/L	4.d#\
8GG#/J	.
8GG#/L	.
8GG#/J	8B\
8GG#/L	4G#\
8GG#/J	.
=23||	=23||
*M2/4	*M2/4
8GG#/L	8B\L
8GG#/J	16B\L
.	16c#\JJ
8GG#/L	8c#\L
8GG#/J	8B\J
=24	=24
8GG#/L	16G#\LL
.	16G#\J
8GG#/J	8B\J
8GG#/L	8.G#\L
8GG#/J	.
.	16G#\Jk
=25	=25
8GG#/L	2G#\
8GG#/J	.
8GG#/L	.
8GG#/J	.
=26	=26
8GG#/L	8.F#\L
8GG#/J	.
.	16D#\Jk
8GG#/L	4D#\
8GG#/J	.
=27||	=27||
*M3/8	*M3/8
8GG#/L	8G#\L
8GG#/	16G#\L
.	16B\
8GG#/J	16B\
.	16G#\JJ
=28||	=28||
*M5/8	*M5/8
8GG#/L	8F#\L
8GG#/	16D#\L
.	16D#\
8GG#/	16F#\
.	16F#\J
8GG#/	8.D#\
8GG#/J	.
.	16D#\Jk
=29||	=29||
*M2/4	*M2/4
8GG#/L	2D#\
8GG#/J	.
8GG#/L	.
8GG#/J	.
=30	=30
8GG#/L	4D#\
8GG#/J	.
4r	4r
==	==
*-	*-
